public/images/hashed/2b87524aded01f411ab406781ea14fc1.svg

<?xml version="1.0" encoding="UTF-8"?>
<svg width="80px" height="80px" viewBox="0 0 80 80" version="1.1" xmlns="http://www.w3.org/2000/svg" xmlns:xlink="http://www.w3.org/1999/xlink">
    <!-- Generator: Sketch 64 (93537) - https://sketch.com -->
    <title>Icon-Architecture/64/Arch_AWS-Storage-Gateway_64</title>
    <desc>Created with Sketch.</desc>
    <defs>
        <linearGradient x1="0%" y1="100%" x2="100%" y2="0%" id="linearGradient-1">
            <stop stop-color="#1B660F" offset="0%"></stop>
            <stop stop-color="#6CAE3E" offset="100%"></stop>
        </linearGradient>
    </defs>
    <g id="Icon-Architecture/64/Arch_AWS-Storage-Gateway_64" stroke="none" stroke-width="1" fill="none" fill-rule="evenodd">
        <g id="Icon-Architecture-BG/64/Storage" fill="url(#linearGradient-1)">
            <rect id="Rectangle" x="0" y="0" width="80" height="80"></rect>
        </g>
        <path d="M55.0231729,36.4888612 C51.2019964,33.6662217 45.6479144,31.9918424 40.0499109,31.9918424 C33.8100535,31.9918424 28.6452763,33.5341918 25.0766488,36.4578542 L25.0766488,65.9995468 L29.0695187,65.9995468 L29.0695187,38.9934286 C29.0695187,38.6383482 29.2571836,38.3102738 29.5626381,38.1302331 C32.3786096,36.4768585 35.2993939,34.9925222 40.0499109,34.9925222 C44.466025,34.9925222 47.6842781,36.6558991 50.2706595,37.9912016 L50.4892692,38.1042272 C50.8216756,38.2752659 51.030303,38.6183436 51.030303,38.9934286 L51.030303,65.9995468 L55.0231729,65.9995468 L55.0231729,36.4888612 Z M56.6362923,35.2045703 C56.877861,35.3946133 57.0196078,35.684679 57.0196078,35.9927488 L57.0196078,66.9997734 C57.0196078,67.5518985 56.5734046,68 56.0213904,68 L50.0320856,68 C49.4800713,68 49.0338681,67.5518985 49.0338681,66.9997734 L49.0338681,39.6035668 C46.5932264,38.3452818 43.8141889,36.9929754 40.0499109,36.9929754 C36.057041,36.9929754 33.5624955,38.134234 31.0659537,39.5695591 L31.0659537,66.9997734 C31.0659537,67.5518985 30.6197504,68 30.0677362,68 L24.0784314,68 C23.5264171,68 23.0802139,67.5518985 23.0802139,66.9997734 L23.0802139,35.9927488 C23.0802139,35.7026831 23.2059893,35.4266206 23.4245989,35.2375777 C27.3695544,31.8048 33.119287,29.9913892 40.0499109,29.9913892 C46.2688057,29.9913892 52.4697326,31.9408309 56.6362923,35.2045703 L56.6362923,35.2045703 Z M68,37.1790176 C68,42.8603046 64.9294831,46.3450941 59.3524421,46.9892401 L59.1238503,45.0007896 C63.7535829,44.4666686 66.0035651,41.9070887 66.0035651,37.1790176 C66.0035651,32.6339879 63.3233512,29.7823419 58.0387879,28.7050978 C57.5955793,28.6140772 57.2691622,28.237992 57.2412121,27.7868898 C56.983672,23.6219462 54.5210695,21.7575239 52.196221,21.7575239 C50.7238503,21.7575239 49.3473084,22.4516811 48.4199643,23.6629555 C48.1993583,23.952021 47.8439929,24.1010548 47.4766488,24.0420414 C47.1172906,23.9870289 46.8158289,23.739973 46.6900535,23.3968952 C45.884492,21.1883949 44.6616756,19.2539567 43.1563636,17.8046283 C41.2717291,15.9852161 36.1039572,12.0803315 28.8099822,15.0520047 C24.6104813,16.7683936 21.3203565,21.6905087 21.3203565,26.2575433 C21.3203565,26.7696593 21.3513012,27.2637713 21.4141889,27.765885 C21.4181818,27.8018932 21.4211765,27.8389016 21.4221747,27.87591 L21.4221747,27.8779104 L21.4221747,27.8799109 L21.4221747,27.8809111 L21.4221747,27.8829115 L21.4221747,27.8839118 L21.4221747,27.8859122 L21.4221747,27.8869125 L21.4221747,27.8869125 L21.4221747,27.8889129 L21.4221747,27.8889129 L21.4221747,27.8909134 L21.4221747,27.8909134 L21.4221747,27.8929138 C21.4221747,28.397028 21.0508378,28.8181234 20.5667023,28.8881393 C18.068164,29.5292845 13.9964349,31.4407176 13.9964349,37.0899974 C13.9964349,37.3070466 14.0074153,37.5130932 14.0183957,37.7201402 C14.2280214,41.4659888 17.1268449,44.3946523 21.2295187,45.0057907 L20.9380392,46.9842389 C15.8710873,46.2300681 12.2884848,42.5512346 12.0249554,37.8291649 C12.0109804,37.5841093 12,37.3430547 12,37.0899974 C12,30.4784996 16.6307308,28.0269442 19.3528699,27.1577473 C19.3339037,26.86068 19.3239216,26.5616122 19.3239216,26.2575433 C19.3239216,20.8473176 23.0782175,15.234046 28.056328,13.1995851 C33.8739394,10.8310485 40.0339394,12.0133163 44.539893,16.3623016 C45.9234225,17.6936032 47.0933333,19.3709832 47.9717647,21.2704135 C49.1646346,20.2961928 50.6409982,19.7570707 52.196221,19.7570707 C55.3006774,19.7570707 58.5708378,21.9755733 59.1647772,26.9076906 C64.8705882,28.3020065 68,31.9278279 68,37.1790176 L68,37.1790176 Z" id="AWS-Storage-Gateway_Icon_64_Squid" fill="#FFFFFF"></path>
    </g>
</svg>

<svg xmlns="http://www.w3.org/2000/svg" width="80" height="80"><defs><linearGradient id="a" x1="0%" x2="100%" y1="100%" y2="0%"><stop offset="0%" stop-color="#1B660F"/><stop offset="100%" stop-color="#6CAE3E"/></linearGradient></defs><g fill="none" fill-rule="evenodd"><path fill="url(#a)" d="M0 0h80v80H0z"/><path fill="#FFF" d="M55.023 36.489c-3.821-2.823-9.375-4.497-14.973-4.497-6.24 0-11.405 1.542-14.973 4.466V66h3.993V38.993c0-.355.187-.683.493-.863 2.816-1.653 5.736-3.137 10.487-3.137 4.416 0 7.634 1.663 10.22 2.998l.22.113a.999.999 0 0 1 .54.89V66h3.993V36.489Zm1.613-1.284c.242.19.384.48.384.788V67c0 .552-.447 1-.999 1h-5.989a.999.999 0 0 1-.998-1V39.604c-2.44-1.259-5.22-2.611-8.984-2.611-3.993 0-6.488 1.141-8.984 2.577V67c0 .552-.446 1-.998 1h-5.99a.999.999 0 0 1-.998-1V35.993c0-.29.126-.566.345-.755 3.945-3.433 9.694-5.247 16.625-5.247 6.219 0 12.42 1.95 16.586 5.214ZM68 37.179c0 5.681-3.07 9.166-8.648 9.81l-.228-1.988c4.63-.534 6.88-3.094 6.88-7.822 0-4.545-2.68-7.397-7.965-8.474a1 1 0 0 1-.798-.918c-.257-4.165-2.72-6.03-5.045-6.03-1.472 0-2.849.695-3.776 1.906a1 1 0 0 1-1.73-.266c-.806-2.209-2.028-4.143-3.534-5.592-1.884-1.82-7.052-5.725-14.346-2.753-4.2 1.716-7.49 6.639-7.49 11.206 0 .512.031 1.006.094 1.508.004.036.007.073.008.11v.017c0 .504-.371.925-.855.995-2.499.641-6.57 2.553-6.57 8.202 0 .217.01.423.021.63.21 3.746 3.109 6.675 7.212 7.286l-.292 1.978c-5.067-.754-8.65-4.433-8.913-9.155A12.809 12.809 0 0 1 12 37.09c0-6.612 4.63-9.063 7.353-9.932a14.1 14.1 0 0 1-.03-.9c0-5.41 3.755-11.024 8.733-13.058 5.818-2.369 11.978-1.187 16.484 3.162 1.383 1.332 2.553 3.009 3.432 4.908a6.653 6.653 0 0 1 4.224-1.513c3.105 0 6.375 2.219 6.969 7.15C64.87 28.303 68 31.928 68 37.18Z"/></g></svg>
